X:1
T:Aupres de ma Blonde
M:6/8
L:1/8
K:F
 A| A2 B A2 G| F3 F z F| c2 c d2 d| c3- c z A| A2 B A2 G| F3 F z F|\
 c2 c d2 d| c3- c z c| d2 d d2 A| B3 B z B| c2 c c2 G| A3- A2 z| F3 GAB|\
 A3 c3| G2 B A2 G| F2 D C3| F3 GAB| A3 c3| G2 B A2 G| F3- F2||
